images/checkout-master.svg

<?xml version="1.0" encoding="UTF-8"?>
<svg id="svg36371" version="1.1" viewBox="0 0 529 225" xmlns="http://www.w3.org/2000/svg" xmlns:cc="http://creativecommons.org/ns#" xmlns:dc="http://purl.org/dc/elements/1.1/" xmlns:rdf="http://www.w3.org/1999/02/22-rdf-syntax-ns#">
 <metadata id="metadata36377">
  <rdf:RDF>
   <cc:Work rdf:about="">
    <dc:format>image/svg+xml</dc:format>
    <dc:type rdf:resource="http://purl.org/dc/dcmitype/StillImage"/>
    <dc:title>images/checkout-master</dc:title>
   </cc:Work>
  </rdf:RDF>
 </metadata>
 <!-- Generator: Sketch 56.3 (81716) - https://sketch.com -->
 <title id="title36310">images/checkout-master</title>
 <desc id="desc36312">Created with Sketch.</desc>
 <g id="03---Branch-Progression-2" transform="translate(4,4)" style="fill-rule:evenodd;fill:none">
  <g id="g36419">
   <path id="Line-7" transform="translate(-.5)" d="m333 113v-29h1v29h4l-4.5 9-4.5-9z" style="fill-rule:nonzero;fill:#8f8981"/>
   <path id="Line" d="m240 138h50v1h-50v4l-9-4.5 9-4.5z" style="fill-rule:nonzero;fill:#8f8981"/>
   <path id="Line-3" d="m385 138h50v1h-50v4l-9-4.5 9-4.5z" style="fill-rule:nonzero;fill:#8f8981"/>
   <path id="Line-2" d="m95 138h50v1h-50v4l-9-4.5 9-4.5z" style="fill-rule:nonzero;fill:#8f8981"/>
   <g id="ref" transform="translate(290,61)">
    <rect id="Rectangle-2" transform="scale(.81132 1)" width="106" height="33" style="fill-rule:evenodd;fill:#f44d27"/>
    <text id="master" transform="translate(-9.9003 .316)" font-size="12px" font-weight="700" style="fill:#979797;font-family:'Source Code Pro';font-size:12px;font-weight:700;text-anchor:middle"><tspan id="tspan36319" x="53" y="20" style="fill:#f0f0f0">master</tspan></text>
   </g>
   <g id="other" transform="translate(290,122)">
    <rect id="rect36323" width="86" height="33" style="fill-rule:evenodd;fill:#efefe7"/>
    <text id="text36327" font-size="12px" font-weight="700" style="fill:#979797;font-family:'Source Code Pro';font-size:12px;font-weight:700;text-anchor:middle"><tspan id="tspan36325" x="43" y="21" style="fill:gray">f30ab</tspan></text>
   </g>
   <g id="g36336" transform="translate(435,122)">
    <rect id="rect36330" width="86" height="33" style="fill-rule:evenodd;fill:#efefe7"/>
    <text id="text36334" font-size="12px" font-weight="700" style="fill:#979797;font-family:'Source Code Pro';font-size:12px;font-weight:700;text-anchor:middle"><tspan id="tspan36332" x="43" y="21" style="fill:gray">87ab2</tspan></text>
   </g>
   <g id="g36344" transform="translate(145,122)">
    <rect id="rect36338" width="86" height="33" style="fill-rule:evenodd;fill:#efefe7"/>
    <text id="text36342" font-size="12px" font-weight="700" style="fill:#979797;font-family:'Source Code Pro';font-size:12px;font-weight:700;text-anchor:middle"><tspan id="tspan36340" x="43" y="21" style="fill:gray">34ac2</tspan></text>
   </g>
   <g id="g36352" transform="translate(0,122)">
    <rect id="rect36346" width="86" height="33" style="fill-rule:evenodd;fill:#efefe7"/>
    <text id="text36350" font-size="12px" font-weight="700" style="fill:#979797;font-family:'Source Code Pro';font-size:12px;font-weight:700;text-anchor:middle"><tspan id="tspan36348" x="43" y="21" style="fill:gray">98ca9</tspan></text>
   </g>
   <path id="Line-8" transform="translate(-.5)" d="m479 164v30h-1v-30h-4l4.5-9 4.5 9z" style="fill-rule:nonzero;fill:#8f8981"/>
   <g id="g36361" transform="translate(435,184)">
    <rect id="rect36355" transform="scale(.81132 1)" width="106" height="33" style="fill-rule:evenodd;fill:#f44d27"/>
    <text id="text36359" transform="translate(-10.128 -.236)" font-size="12px" font-weight="700" style="fill:#979797;font-family:'Source Code Pro';font-size:12px;font-weight:700;text-anchor:middle"><tspan id="tspan36357" x="53" y="20" style="fill:#f0f0f0">testing</tspan></text>
   </g>
   <path id="Line-11" transform="translate(-1.5)" d="m334 52v-34h1v34h4l-4.5 9-4.5-9z" style="fill-rule:nonzero;fill:#8f8981"/>
   <g id="goldref" transform="translate(290)">
    <rect id="Rectangle-3" transform="scale(.7963 1)" width="108" height="33" style="fill-rule:evenodd;fill:#cd9f00"/>
    <text id="master-2" transform="translate(-11.17 .412)" font-size="12px" font-weight="700" style="fill:#979797;font-family:'Source Code Pro';font-size:12px;font-weight:700;text-anchor:middle"><tspan id="tspan36366" x="54" y="20" style="fill:#f0f0f0">HEAD</tspan></text>
   </g>
  </g>
 </g>
</svg>

<?xml version="1.0"?>
<svg xmlns="http://www.w3.org/2000/svg" xmlns:xlink="http://www.w3.org/1999/xlink" width="544px" height="218px" viewBox="0 0 544 218" version="1.1">
    <!-- Generator: Sketch 56.3 (81716) - https://sketch.com -->
    <title>images/checkout-master</title>
    <desc>Created with Sketch.</desc>
    <g id="03---Branch-Progression-2" stroke="none" stroke-width="1" fill="none" fill-rule="evenodd">
        <path id="Line-7" d="M333,113 L333,84 L334,84 L334,113 L338,113 L333.5,122 L329,113 L333,113 Z" fill="#8F8981" fill-rule="nonzero"/>
        <path id="Line" d="M240,138 L290,138 L290,139 L240,139 L240,143 L231,138.5 L240,134 L240,138 Z" fill="#8F8981" fill-rule="nonzero"/>
        <path id="Line-3" d="M385,138 L435,138 L435,139 L385,139 L385,143 L376,138.5 L385,134 L385,138 Z" fill="#8F8981" fill-rule="nonzero"/>
        <path id="Line-2" d="M95,138 L145,138 L145,139 L95,139 L95,143 L86,138.5 L95,134 L95,138 Z" fill="#8F8981" fill-rule="nonzero"/>
        <g id="ref" transform="translate(290.000000, 61.000000)">
            <rect id="Rectangle-2" fill="#F44D27" fill-rule="evenodd" x="0" y="0" width="106" height="33"/>
            <text stroke="none" font-family="Source Code Pro" font-size="12px" font-weight="900" fill="#979797" fill-opacity="1" text-anchor="middle" id="master">
                <tspan fill="#f0f0f0" x="53" y="20" fill-opacity="1">master</tspan>
            </text>
        </g>
        <g id="other" transform="translate(290.000000, 122.000000)">
            <rect id="Rectangle-2" fill="#EFEFE7" fill-rule="evenodd" x="0" y="0" width="86" height="33"/>
            <text stroke="none" font-family="Source Code Pro" font-size="12px" font-weight="900" fill="#979797" fill-opacity="1" text-anchor="middle" id="master">
                <tspan fill="#808080" x="43" y="21" fill-opacity="1">f30ab</tspan>
            </text>
        </g>
        <g id="other" transform="translate(435.000000, 122.000000)">
            <rect id="Rectangle-2" fill="#EFEFE7" fill-rule="evenodd" x="0" y="0" width="86" height="33"/>
            <text stroke="none" font-family="Source Code Pro" font-size="12px" font-weight="900" fill="#979797" fill-opacity="1" text-anchor="middle" id="master">
                <tspan fill="#808080" x="43" y="21" fill-opacity="1">87ab2</tspan>
            </text>
        </g>
        <g id="other" transform="translate(145.000000, 122.000000)">
            <rect id="Rectangle-2" fill="#EFEFE7" fill-rule="evenodd" x="0" y="0" width="86" height="33"/>
            <text stroke="none" font-family="Source Code Pro" font-size="12px" font-weight="900" fill="#979797" fill-opacity="1" text-anchor="middle" id="master">
                <tspan fill="#808080" x="43" y="21" fill-opacity="1">34ac2</tspan>
            </text>
        </g>
        <g id="other" transform="translate(0.000000, 122.000000)">
            <rect id="Rectangle-2" fill="#EFEFE7" fill-rule="evenodd" x="0" y="0" width="86" height="33"/>
            <text stroke="none" font-family="Source Code Pro" font-size="12px" font-weight="900" fill="#979797" fill-opacity="1" text-anchor="middle" id="master">
                <tspan fill="#808080" x="43" y="21" fill-opacity="1">98ca9</tspan>
            </text>
        </g>
        <path id="Line-8" d="M479,164 L479,194 L478,194 L478,164 L474,164 L478.5,155 L483,164 L479,164 Z" fill="#8F8981" fill-rule="nonzero"/>
        <g id="ref" transform="translate(435.000000, 184.000000)">
            <rect id="Rectangle-2" fill="#F44D27" fill-rule="evenodd" x="0" y="0" width="106" height="33"/>
            <text stroke="none" font-family="Source Code Pro" font-size="12px" font-weight="900" fill="#979797" fill-opacity="1" text-anchor="middle" id="master">
                <tspan fill="#f0f0f0" x="53" y="20" fill-opacity="1">testing</tspan>
            </text>
        </g>
        <path id="Line-10" d="M479,226 L479,263 L478,263 L478,226 L474,226 L478.5,217 L483,226 L479,226 Z" fill="#8F8981" fill-rule="nonzero"/>
        <path id="Line-11" d="M334,52 L334,18 L335,18 L335,52 L339,52 L334.5,61 L330,52 L334,52 Z" fill="#8F8981" fill-rule="nonzero"/>
        <g id="goldref" transform="translate(290.000000, 0.000000)">
            <rect id="Rectangle-3" fill="#CD9F00" fill-rule="evenodd" x="0" y="0" width="108" height="33"/>
            <text stroke="none" font-family="Source Code Pro" font-size="12px" font-weight="900" fill="#979797" fill-opacity="1" text-anchor="middle" id="master-2">
                <tspan fill="#f0f0f0" x="54" y="20" fill-opacity="1">HEAD</tspan>
            </text>
        </g>
    </g>
</svg>
